X:1
T:Title
%%score ( 1 2 ) ( 3 4 )
L:1/8
Q:1/4=107
M:4/4
K:Ab
V:1 treble nm="Grand Piano, Soprano"
V:2 treble 
V:3 bass nm="Choir Pad, Bass"
V:4 bass 
V:1
 [CAc]2 [CEc]2 [CAc]2 [CEc]2 | [CAc]2 [CEc]2 [CE]2 [CE]2 | [DE]2 [DEG]2 [DEGB]2 [EGBd]2 | z4 A4 | %4
 [CAc]2 [CEc]2 [CAc]2 [CEc]2 | [CEGc]2 [CEG]2 C2 C2 | [EGc]2 [FG_c=d]2 [EG=ce]2 [FG_cd]2 | %7
 [EGc]6 c2 | c2 B2 E2 c2 | B2 A2 E2 B2 | A2 G2 z2 G2 | [_CF]4 [=CE]2 c2 | e2 B2 c2 e2 | %13
 e2 d2 [DF]2 [FAdf]2 | [EAce]2 [=DA]2 [EAc]2 [_DEGB]2 | [CEA]6 z2 | [CE]2 [CEc]2 [CE]2 [CEc]2 | %17
 c4 B4 | [DE]2 [EGd]2 [DE]2 [EGd]2 | d4 c4 | [EAc]2 [EAc]2 [=EBc]2 [EBc=e]2 | f4 c4 | d2 c2 B2 A2 | %23
 c6 z2 | c2 z2 z4 | B2 z2 z4 | D2- [DG]2 z2 G2 | [_CF]4 [=CE]2 c2 | e2 B2 c2 e2 | %29
 e2 d2 [DF]2 [FAdf]2 | [EAce]2 [=DA]2 [EAc]2 [DEGB]2 | [CEA]8 |] %32
V:2
 x8 | x8 | x8 | [CAc]2 [CE]2 C2 [CE]2 | x8 | z4 E4 | x8 | x8 | D8 | C8 | D4 D4 | x8 | G4 _G4 | %13
 F4 z4 | x8 | x8 | x8 | [DEG]2 [DEG]2 [DEG]2 [DEG]2 | x8 | [FA]2 [=EA]2 [_EA]2 [EA]2 | x8 | %21
 [FAc]2 [FAc]2 [FA]2 [FA]2 | x8 | [=EG]2 [FA]2 [EG]2 c2 | D2- [D-B]2 [D-E]2 [Dc]2 | %25
 C2- [C-A]2 [C-E]2 [CB]2 | A2 z2 D4 | x8 | G4 G4 | F4 z4 | x8 | x8 |] %32
V:3
 E,2 A,2 E,2 A,2 | E,2 A,2 E,2 A,2 | G,2 B,2 G,2 B,2 | A,,2- [A,,-A,]2 [A,,-E,]2 [A,,A,]2 | %4
w: By~Joseph~Lincoln~Hall * * *||||
 A,,2- [A,,-A,]2 [A,,-E,]2 [A,,A,]2 | G,2 G,2 G,2 G,2 | [C,C]2 [_C,_C]2 [=C,=C]2 [G,,G,]2 | %7
w: |||
 [C,,C,]2 G,,>E,, C,,2 z2 | [E,G,]2 [E,G,]2 [E,G,B,]2 [E,G,B,]2 | %9
w: ||
 [A,,E,A,]2 [A,,E,A,]2 [A,,E,A,]2 [A,,E,A,]2 | [E,B,]2 [E,B,]2 [E,G,B,]2 [E,G,B,]2 | %11
w: ||
 [A,,=D,A,]2 [A,,D,A,]2 [A,,E,A,]2 z2 | [E,B,]2 [E,E]2 [A,E]2 [=A,C]2 | %13
w: ||
 [B,D]2 [B,D]2 [D,A,]2 [D,A,D]2 | [E,A,C]2 [=E,A,_C]2 [_E,A,=C]2 [E,G,]2 | %15
w: ||
 [A,,A,]2 [E,,E,]2 [C,,C,]2 [E,,E,]2 | A,2 z2 z4 | E,2- [E,-B,]2 [E,-G,]2 [E,B,]2 | %18
w: |||
 E,2- [E,-B,]2 [E,-G,]2 [E,B,]2 | A,2 A,2 A,2 A,2 | C2 C2 C2 C2 | [A,C]2 [A,C]2 [A,C]2 [A,C]2 | %22
w: ||||
 [D,D]2 [C,C]2 [B,,B,]2 [A,,A,]2 | [C,C]2 [C,C]2 [C,C]2 z2 | [E,G,]2 [E,G,]2 [E,G,B,]2 [E,G,B,]2 | %25
w: |||
 [A,,E,A,]2 [A,,E,A,]2 [A,,E,A,]2 [A,,E,A,]2 | [E,B,]2 [E,B,]2 [E,G,B,]2 [E,G,B,]2 | %27
w: ||
 [A,,=D,A,]2 [A,,D,A,]2 [A,,D,A,]2 z2 | [E,B,]2 [E,E]2 [A,E]2 [=A,C]2 | %29
w: ||
 [B,D]2 [B,D]2 [D,A,]2 [D,A,D]2 | [E,A,C]2 [=E,A,_C]2 [_E,A,=C]2 [E,G,]2 | [A,,E,A,]8 |] %32
w: |||
V:4
 A,,8 | A,,8 | E,8 | E,2 z2 z4 | E,2 z2 z4 | C,8 | x8 | x8 | x8 | x8 | x8 | x8 | x8 | x8 | x8 | %15
 x8 | A,,2- [A,,-E,]2 [A,,-A,]2 [A,,E,]2 | G,2 z2 z4 | G,2 z2 z4 | A,,8 | A,4 G,4 | F,8 | x8 | x8 | %24
 x8 | x8 | x8 | x8 | x8 | x8 | x8 | x8 |] %32

